src/assets/selectIcons/materiale_5.svg

<svg xmlns="http://www.w3.org/2000/svg" viewBox="0 0 512 512" style="height: 512px; width: 512px;"><path d="M0 0h512v512H0z" fill="#000" fill-opacity="1"></path><g class="" transform="translate(0,0)" style=""><path d="M451.47 49.25l-70.22.125-5.47-.03L373.064 54l-34.344 58.875-58.876.125-31.188-53.375-2.625-4.72-5.468-.06-70.218.124-5.5-.032-2.688 4.656-34 58.312-65.562.125-5.47-.03-2.718 4.656-35.093 60.188-2.688 4.656 2.78 4.688 31.126 53.28-33.75 57.938-2.718 4.656 2.782 4.688 35.125 60.094 2.593 4.75 5.5.03 67.812-.124 31.03 53.03 2.595 4.75 5.5.033 67.594-.125 31.187 53.375 2.626 4.718 5.47.064 70.218-.125 5.312.092 2.72-4.656 34.155-58.375 65.564-.124 5.312.094 2.688-4.656 35.28-60.25 2.688-4.656-2.78-4.688-35.126-60.094-2.594-4.72-5.5-.06-67.593.124-27.19-46.5 32.94-56.344 61.53-.125 5.313.095 2.687-4.656 35.25-60.25 2.72-4.657-2.783-4.688-35.125-60.094-2.593-4.718-5.5-.062zm-5.345 18.656l29.5 51.094-29.53 50.688-59.47.093L357 118.876l29.656-50.906 59.47-.064zM127.47 136.562l29.5 51.094-29.532 50.688-59.47.094-29.624-50.907L68 136.626l59.47-.063zm106.905 58l28.53 49.5-30.374 52.125-57.78.094-29.5-50.717 29.656-50.907 59.47-.094zm105.313 57.344l29.375 50.938-29.532 50.72-59.467.06-28.72-49.343L281.907 252l57.78-.094zm106.78 57.875l29.5 51.095-29.53 50.688-59.47.062-29.624-50.875L387 309.844l59.47-.063zm-214.53 5.19l29.406 50.967-29.53 50.688-59.47.063-29.625-50.907 29.56-50.717 59.657-.094z" fill="#fff" fill-opacity="1"></path></g></svg>

<?xml version="1.0" encoding="UTF-8" standalone="no"?>
<!DOCTYPE svg PUBLIC "-//W3C//DTD SVG 1.1//EN" "http://www.w3.org/Graphics/SVG/1.1/DTD/svg11.dtd">
<svg width="100%" height="100%" viewBox="0 0 512 512" version="1.1" xmlns="http://www.w3.org/2000/svg" xmlns:xlink="http://www.w3.org/1999/xlink" xml:space="preserve" xmlns:serif="http://www.serif.com/" style="fill-rule:evenodd;clip-rule:evenodd;stroke-linejoin:round;stroke-miterlimit:2;">
    <rect x="0" y="0" width="512" height="512" style="fill-rule:nonzero;"/>
    <g>
        <path d="M451.47,49.25L381.25,49.375L375.78,49.345L373.064,54L338.72,112.875L279.844,113L248.656,59.625L246.031,54.905L240.563,54.845L170.345,54.969L164.845,54.937L162.157,59.593L128.157,117.905L62.595,118.03L57.125,118L54.407,122.656L19.314,182.844L16.626,187.5L19.406,192.188L50.532,245.468L16.782,303.406L14.064,308.062L16.846,312.75L51.971,372.844L54.564,377.594L60.064,377.624L127.876,377.5L158.906,430.53L161.501,435.28L167.001,435.313L234.595,435.188L265.782,488.563L268.408,493.281L273.878,493.345L344.096,493.22L349.408,493.312L352.128,488.656L386.283,430.281L451.847,430.157L457.159,430.251L459.847,425.595L495.127,365.345L497.815,360.689L495.035,356.001L459.909,295.907L457.315,291.187L451.815,291.127L384.222,291.251L357.032,244.751L389.972,188.407L451.502,188.282L456.815,188.377L459.502,183.721L494.752,123.471L497.472,118.814L494.689,114.126L459.564,54.032L456.971,49.314L451.471,49.252L451.47,49.25ZM446.125,67.906L475.625,119L446.095,169.688L386.625,169.781L357,118.876L386.656,67.97L446.126,67.906L446.125,67.906ZM127.47,136.562L156.97,187.656L127.438,238.344L67.968,238.438L38.344,187.531L68,136.626L127.47,136.563L127.47,136.562ZM234.375,194.562L262.905,244.062L232.531,296.187L174.751,296.281L145.251,245.564L174.907,194.657L234.377,194.563L234.375,194.562ZM339.688,251.906L369.063,302.844L339.531,353.564L280.064,353.624L251.344,304.281L281.907,252L339.687,251.906L339.688,251.906ZM446.468,309.781L475.968,360.876L446.438,411.564L386.968,411.626L357.344,360.751L387,309.844L446.47,309.781L446.468,309.781ZM231.938,314.971L261.344,365.938L231.814,416.626L172.344,416.689L142.719,365.782L172.279,315.065L231.936,314.971L231.938,314.971Z" style="fill:rgb(227,199,58);fill-rule:nonzero;"/>
    </g>
</svg>
